X: 71
T: Carolan's Concerto
M: 4/4
K: D
L: 1/8
((3ABc |: "D" d2) de d2 cB | "A" ((3ABA) GA "D" F2 AF | "A" E2 AE "D" D2 FA |
"E" Bcd(e    "A" d)c{Bc}(BA) | "D" d2 a2 fga(f | "A" e)(fg)e "D" f(ga)f | "G" gabg "D" fdf(a |
"Em" g)(fe)d "A" d)c{Bc}(BA) | "G" ((3BcB) ((3BcB) g2 g2 | "D" ((3ABA) ((3ABA) f2 f2 | "E" ^G2 B2 ((3efe) ((3dcB) |
"A" ((3cdc) ((3BcB) ((3ABA) ((3=GFE) | "D" FGA(F "A" E)(FG)E | "D" FGAF "G" GABG | "D" ABde "A" fedc |
|1 "D" d2 A2 D2 ((3ABc) :|2 "D" d6 ((3ABc |: "D" d2) b2 ag{fg}(fe) | d2 a2 "A" c2 a2 | "G" B2 g2 "A" A(Bcd) |
eg{fg}(fe) "D" d3 f | "(A)" ecBA "A" c2 a2 | "G" B2 g2 "D" A2 f2 | "(A)" ecBA "A" c2 a2 | "G" B2 g2 bgbg |
"D" afaf "A" e(cd)(B | c)(AB)(G A)(FG)(E | "D" D)AFA DAFA | "Em" GEBE dEBE |
"D" FAd(c B)AG(F | "G" E)FGA "A" Bcde | "D" d2 e2 "A" {fg}fedc |1 "D" d2 A2 D2 ((3ABc :|2 "D" d6 z2 |]

